app/assets/images/icons/globe.svg

<?xml version="1.0" encoding="UTF-8"?>
<svg width="64px" height="64px" viewBox="0 0 64 64" version="1.1" xmlns="http://www.w3.org/2000/svg" xmlns:xlink="http://www.w3.org/1999/xlink">
    <!-- Generator: Sketch 50.2 (55047) - http://www.bohemiancoding.com/sketch -->
    <title>Shape</title>
    <desc>Created with Sketch.</desc>
    <defs></defs>
    <g id="Page-1" stroke="none" stroke-width="1" fill="none" fill-rule="evenodd">
        <g id="fire" transform="translate(-275.000000, 0.000000)" fill="#F95D6A" fill-rule="nonzero">
            <g id="globe" transform="translate(275.000000, 0.000000)">
                <path d="M32,0 C14.326888,-1.082166e-15 2.164332e-15,14.326888 0,32 C-2.164332e-15,49.673112 14.326888,64 32,64 C49.673112,64 64,49.673112 64,32 C64,23.5130723 60.6285811,15.3737471 54.627417,9.372583 C48.6262529,3.37141889 40.4869277,5.19674441e-16 32,0 Z M32,8 C34.5724778,8.09577238 37.1122749,8.60913562 39.52,9.52 C37.84,11.12 35.92,12.52 36.24,14 C36.56,15.48 41.76,15 41.76,18 C41.76,20.16 38.4,20.8 40.76,23.28 C43.56,26.08 35.64,31.12 35.48,34.8 C35.24,41.44 42.2,42.56 47.72,42.56 C51.08,42.56 51.96,44.16 51.72,46.08 C47.1489608,52.4254526 39.7800765,56.1546451 31.96,56.08 C29.0472244,56.0370816 26.1692777,55.4397719 23.48,54.32 C25.24,50.8 21.24,43.84 17.48,41.6 C15.64,39.76 11.72,40.48 9.48,39.6 C8.64579888,37.4468834 8.13362435,35.1825328 7.96,32.88 C8.21979998,32.4208679 8.71271501,32.1436032 9.24,32.16 C10.76,32.16 12.84,35.16 13.96,34.88 C15.36,34.56 8,24.4 11.44,22.4 C13.04,21.4 16.24,25.52 15.2,21.12 C14.2,17.04 18.08,18.88 20.48,17.84 C22.56,16.96 24.08,14.56 21.48,13.12 C20.8268457,12.6958538 20.2347032,12.184458 19.72,11.6 C23.4150387,9.32717559 27.6620104,8.10980257 32,8.08 L32,8 Z M50.48,16.72 C51.8944384,18.4818429 53.077396,20.4175917 54,22.48 L54,22.72 C53.4771323,23.3671733 52.8871733,23.9571323 52.24,24.48 C50,26.72 49.68,22.8 48.72,22 C47.72,21 43.92,22.16 43.44,21 C42.88,19.52 47.44,17.6 50.48,16.72 Z" id="Shape"></path>
            </g>
        </g>
    </g>
</svg>

<svg id="Layer_1" data-name="Layer 1" xmlns="http://www.w3.org/2000/svg" width="64" height="64" viewBox="0 0 64 64"><defs><style>.cls-1{fill:#d4953f;}</style></defs><title>globe</title><path class="cls-1" d="M32,0A32,32,0,1,0,64,32,32,32,0,0,0,32,0Zm0,8a23.75,23.75,0,0,1,7.52,1.52c-1.68,1.6-3.6,3-3.28,4.48s5.52,1,5.52,4c0,2.16-3.36,2.8-1,5.28,2.8,2.8-5.12,7.84-5.28,11.52-0.24,6.64,6.72,7.76,12.24,7.76,3.36,0,4.24,1.6,4,3.52a24.07,24.07,0,0,1-19.76,10,22.94,22.94,0,0,1-8.48-1.76c1.76-3.52-2.24-10.48-6-12.72-1.84-1.84-5.76-1.12-8-2a23.49,23.49,0,0,1-1.52-6.72,1.42,1.42,0,0,1,1.28-.72c1.52,0,3.6,3,4.72,2.72C15.36,34.56,8,24.4,11.44,22.4c1.6-1,4.8,3.12,3.76-1.28-1-4.08,2.88-2.24,5.28-3.28,2.08-.88,3.6-3.28,1-4.72a8.55,8.55,0,0,1-1.76-1.52A23.75,23.75,0,0,1,32,8.08V8Zm18.48,8.72A26.46,26.46,0,0,1,54,22.48v0.24a11.78,11.78,0,0,1-1.76,1.76C50,26.72,49.68,22.8,48.72,22c-1-1-4.8.16-5.28-1C42.88,19.52,47.44,17.6,50.48,16.72Z"/></svg>
